svgs/regular/comment-minus.svg

<svg xmlns="http://www.w3.org/2000/svg" viewBox="0 0 512 512"><!-- Font Awesome Pro 6.0.0-alpha2 by @fontawesome - https://fontawesome.com License - https://fontawesome.com/license (Commercial License) --><path d="M256.068 32C114.693 32 0.068 125.125 0.068 240C0.068 287.625 19.943 331.25 52.943 366.25C38.068 405.75 7.068 439.125 6.568 439.5C-0.057 446.5 -1.807 456.75 1.943 465.5C5.818 474.25 14.443 480 24.068 480C85.568 480 134.068 454.25 163.193 433.75C192.068 442.75 223.318 448 256.068 448C397.443 448 512.068 354.875 512.068 240S397.443 32 256.068 32ZM256.068 400C229.318 400 202.943 395.875 177.693 387.875L154.943 380.75L135.443 394.5C121.193 404.625 101.568 415.875 77.943 423.5C85.318 411.375 92.318 397.75 97.818 383.25L108.443 355.25L87.818 333.375C69.818 314.125 48.068 282.25 48.068 240C48.068 151.75 141.318 80 256.068 80S464.068 151.75 464.068 240S370.818 400 256.068 400ZM335.998 216.002H175.998C162.736 216.002 151.998 226.742 151.998 240C151.998 253.256 162.728 263.998 175.998 263.998H335.998C349.26 263.998 359.998 253.258 359.998 240S349.26 216.002 335.998 216.002Z"/></svg>

<svg xmlns="http://www.w3.org/2000/svg" viewBox="0 0 512 512"><!-- Font Awesome Pro 5.15.1 by @fontawesome - https://fontawesome.com License - https://fontawesome.com/license (Commercial License) --><path d="M336 216H176c-8.8 0-16 7.2-16 16v16c0 8.8 7.2 16 16 16h160c8.8 0 16-7.2 16-16v-16c0-8.8-7.2-16-16-16zM256 32C114.6 32 0 125.1 0 240c0 47.6 19.9 91.2 52.9 126.3C38 405.7 7 439.1 6.5 439.5c-6.6 7-8.4 17.2-4.6 26S14.4 480 24 480c61.5 0 110-25.7 139.1-46.3C192 442.8 223.2 448 256 448c141.4 0 256-93.1 256-208S397.4 32 256 32zm0 368c-26.7 0-53.1-4.1-78.4-12.1l-22.7-7.2-19.5 13.8c-14.3 10.1-33.9 21.4-57.5 29 7.3-12.1 14.4-25.7 19.9-40.2l10.6-28.1-20.6-21.8C69.7 314.1 48 282.2 48 240c0-88.2 93.3-160 208-160s208 71.8 208 160-93.3 160-208 160z"/></svg>
